assets/img/noname_3.svg

<svg width="30px" height="30px" viewBox="0 0 30 30" fill="none" xmlns="http://www.w3.org/2000/svg" class="image-parser-img svg-tag" style="top: 60px;" version="1.1">
<g clip-path="url(#clip0_1470_2891)">
<rect width="30" height="30" rx="15" fill="#2D2D2D"></rect>
<path fill-rule="evenodd" clip-rule="evenodd" d="M14.5362 19.455L12.7167 21.2243C12.5052 21.4298 12.3379 21.603 11.9592 21.603L12.2172 17.7413L19.2402 11.4038C19.5484 11.13 19.1727 10.9965 18.7639 11.2448L10.0962 16.713L6.35219 15.5445C5.54369 15.297 5.53769 14.7413 6.53369 14.3415L21.1234 8.71576C21.7894 8.41351 22.4329 8.87551 22.1787 9.89551L19.6939 21.6045C19.5207 22.4363 19.0174 22.6358 18.3214 22.251L14.5362 19.455V19.455Z" fill="white"></path>
</g>
<defs>
<clipPath id="clip0_1470_2891">
<rect width="30" height="30" fill="white"></rect>
</clipPath>
</defs>
</svg>

<svg width="30" height="30" fill="none" xmlns="http://www.w3.org/2000/svg" class="image-parser-img svg-tag" style="top:60px"><g clip-path="url(#clip0_1470_2891)"><rect width="30" height="30" rx="15" fill="#2D2D2D"/><path fill-rule="evenodd" clip-rule="evenodd" d="M14.536 19.455l-1.82 1.77c-.21.205-.378.378-.757.378l.258-3.862 7.023-6.337c.308-.274-.067-.408-.476-.16l-8.668 5.469-3.744-1.169c-.808-.247-.814-.803.182-1.203l14.59-5.625c.665-.302 1.309.16 1.055 1.18l-2.485 11.709c-.173.831-.677 1.03-1.373.646l-3.785-2.796z" fill="#fff"/></g><defs><clipPath id="clip0_1470_2891"><path fill="#fff" d="M0 0h30v30H0z"/></clipPath></defs></svg>
